X: 062
T: Newmarket House
C: McLellan Coll. arr. Bert Murray
R: reel
B: Bert Murray's "Bon Accord Collection" 1999 p.6
%
Z: 2011 John Chambers <jc:trillian.mit.edu>
M: C
L: 1/8
K: Bm
|: u(fe) |\
dBBA Bcdc | Bffe f2(ed) | cAAB ABcB | Aeed efef |
dBBA Bcdc | Bffe f2(ed) | cAAA Bfef | d2B2 B2 :|
|: u(de) |\
f2(BA) Bcde | fBBd fecd | e2(Ac) afed | cAce fece |
f2(BA) Bcde | fBBd f2(ed) | cAAA Bfef | d2B2 B2 :|

%%sep 2 1 500

